X:529
T:Reel 529
M:4/4
K:Gmaj
L:1/8
G2BG dGeG|dGBG FAAc|G2BG dGeg|| (3abc' bg afdf:||2d'c'bg afg2|dgbg dgbg|dgbg faaf| (3gag d'g d'gbg|fgac' bgg2| (3gfg bg d'gbg|dgbg fgac'| (3d'c'b  (3c'ba bgaf|gedc BGG2|
